X:015
T: Lord Kelly's Reel
N: O'Farrell's Pocket Companion v.1 (Sky ed. p.18)
N: "Scotch"
M: C
L: 1/8
R: reel
Q: 360
K: Ador
A|EAcA eAcA|DGBg GABA/G/|EAAc Bdce|dg e/d/c/B/ cAA :|
a|c'aea Aaac'|bgdg Gggb|c'aea gedB|cg e/d/c/B/ cAAa|
c'aea Aeac'|Bgdg GBgb|c'abg aedc/B/|cg e/d/c/B/ cAA ||
